X: 421
T: Over the Water #2   (D)
R: jig
B: Commonplace Book, Personal MS of Walter Rainstorp, 1747++
S: https://brbl-dl.library.yale.edu/vufind/Record/3444369
F: https://brbl-dl.library.yale.edu/pdfgen/exportPDF.php?bibid=2057949&solrid=3444369
Z: 2019 John Chambers <jc:trillian.mit.edu>
M: 6/8
L: 1/8
K: D
|:\
A2A ABG | FGE DFG | A2A AFA | B3 d3 |\
D2D DEF | G2F E2c | dcB AFA | B3 d3 :|
|:\
d2e f2g | efd ecA | d2e fgf | e3 A3 |\
d2e fgf-| fed cBA | B/c/dB AFA | B3 d3 :|
%%begintext align
%% 1.t Cu. cast off one Cu .|
%% 1.t Man cast down 1.t Wo cast up :|
%% 1.t Man falls in between 3.d Cu.
%% 1.t Wo between 2.d Cu. meet & foot it and turn Partner. .|
%% 1.t Man between 2.d & 3.d We, and the 1.t Wo.
%% between 2.d & 3.d Men, meet, foot it & turn Partner :|
%% set Corners .| :| 
%% lead out Sides .|. :|:
%%endtext
